X: 13
T: Gillian's Reel
M:C
L:1/8
C:P Milne
S:James Hunter
R:Reel
K:A
E|{G}-A2 cA B2 dB|c2 ec dBGB|{G}-A2 ce fgaf|edcB AGFE|!
AEAc BEBd|cAce dBGB|A/A/A ce fgaf|edcB A2-A||!
g-|a2 fa g2 eg-|f2 df ecBA|{g}-a2 fa g-aba|g-fe^d e2 fg|!
{g}-a-gfa {g}-g-feg|{g}f-edf {g}-e-dcB|A/A/A ce fgaf|ecdB AG[AF]E||!
% <A name="D1X014">
